svg/600/outlined/fastfood-fill.svg

<svg xmlns="http://www.w3.org/2000/svg" width="48" height="48" viewBox="0 -960 960 960"><path d="M27-304q0-109 92.999-171 93-62 211-62 117.435 0 210.718 62 93.282 62 93.282 171h-608Zm0 138.218v-80.436h607.999v80.436h-608ZM66.608-26.999Q49.902-27 38.45-38.451 26.999-49.9 26.999-66.609V-108h608v41.391q0 16.707-11.451 28.158-11.451 11.452-28.158 11.452H66.609Zm628.39 0V-315q0-103.754-68.521-180.247-68.522-76.492-170.826-97.492l-18.696-160.262H642.52v-180h73.001v180H933L864.435-98.522q-3.443 31.163-26.156 51.343-22.714 20.18-53.627 20.18h-89.653Z"/></svg>

<svg xmlns="http://www.w3.org/2000/svg" width="48" height="48" viewBox="0 -960 960 960"><path d="M27-304q0-109 93-171t211-62q117.43 0 210.72 62Q635-413 635-304H27Zm0 138.22v-80.44h608v80.44H27ZM66.61-27Q49.9-27 38.45-38.45T27-66.61V-108h608v41.39q0 16.71-11.45 28.16T595.39-27H66.61ZM695-27v-288q0-103.75-68.52-180.25-68.52-76.49-170.83-97.49L436.96-753h205.56v-180h73v180H933L864.44-98.52q-3.45 31.16-26.16 51.34Q815.57-27 784.65-27H695Z"/></svg>
